icons/discuss-fill.svg

<svg viewBox="0 0 24 24" fill="currentColor" xmlns="http://www.w3.org/2000/svg"><path d="M16.8 19L14 22.5L11.2 19H6C5.44772 19 5 18.5523 5 18V7.10256C5 6.55028 5.44772 6.10256 6 6.10256H22C22.5523 6.10256 23 6.55028 23 7.10256V18C23 18.5523 22.5523 19 22 19H16.8ZM2 2H19V4H3V15H1V3C1 2.44772 1.44772 2 2 2Z"/></svg>

<svg xmlns="http://www.w3.org/2000/svg" viewBox="0 0 24 24">
    <g>
        <path fill="none" d="M0 0h24v24H0z"/>
        <path d="M16.8 19L14 22.5 11.2 19H6a1 1 0 0 1-1-1V7.103a1 1 0 0 1 1-1h16a1 1 0 0 1 1 1V18a1 1 0 0 1-1 1h-5.2zM2 2h17v2H3v11H1V3a1 1 0 0 1 1-1z"/>
    </g>
</svg>
